FileRun/filerun.svg

<?xml version="1.0" encoding="UTF-8"?>
<svg width="96px" height="96px" viewBox="0 0 96 96" version="1.1" xmlns="http://www.w3.org/2000/svg" xmlns:xlink="http://www.w3.org/1999/xlink">
    <title>FileRun icon 96x96 Diap</title>
    <g id="FileRun-icon-96x96-Diap" stroke="none" stroke-width="1" fill="none" fill-rule="evenodd">
        <path d="M56.7695783,40.9924699 L53.7622611,49.2575083 L50.946827,49.2575083 C47.9437228,49.2575083 44.6234945,51.6925034 43.5304121,54.6964047 L43.5304121,54.6964047 L38.4905131,68.5470676 L43.9677983,68.5470676 L28.9683633,79.5466867 L21.9743976,68.5470676 L27.4712158,68.5470676 L33.5337251,51.886353 C35.722954,45.869739 42.3737516,40.9924699 48.388769,40.9924699 L48.388769,40.9924699 L56.7695783,40.9924699 Z M65.7861245,16.125 L75.564759,27.1452081 L57.7520296,38.1650329 L59.7602655,32.6553121 L45.9344523,32.6553121 C39.8556237,32.6553121 33.1342519,37.5755817 30.9218147,43.6452428 L30.9218147,43.6452428 L28.9024476,49.185241 L20.625,49.185241 L23.6488689,40.8899991 C27.52524,30.2557321 39.3013629,21.635104 49.9513078,21.635104 L49.9513078,21.635104 L63.7775048,21.635104 L65.7861245,16.125 Z" id="FileRun-icon" fill="#590099"></path>
    </g>
</svg>

<svg width="96" height="96" xmlns="http://www.w3.org/2000/svg"><path d="M56.77 40.992l-3.008 8.266h-2.815c-3.003 0-6.324 2.435-7.417 5.438l-5.04 13.851h5.478l-15 11-6.994-11h5.497l6.063-16.66c2.189-6.017 8.84-10.895 14.855-10.895h8.38zm9.016-24.867l9.779 11.02-17.813 11.02 2.008-5.51H45.934c-6.078 0-12.8 4.92-15.012 10.99l-2.02 5.54h-8.277l3.024-8.295C27.525 30.256 39.3 21.635 49.95 21.635h13.827l2.008-5.51z" fill="#590099" fill-rule="evenodd"/></svg>
